icons/desktop/16/svg/add-16.svg

<svg width="16" height="16" viewBox="0 0 16 16" fill="none" xmlns="http://www.w3.org/2000/svg">
<path d="M8 2C8.41421 2 8.75 2.33579 8.75 2.75V7.25H13.25C13.6642 7.25 14 7.58579 14 8C14 8.41421 13.6642 8.75 13.25 8.75H8.75V13.25C8.75 13.6642 8.41421 14 8 14C7.58579 14 7.25 13.6642 7.25 13.25V8.75H2.75C2.33579 8.75 2 8.41421 2 8C2 7.58579 2.33579 7.25 2.75 7.25H7.25V2.75C7.25 2.33579 7.58579 2 8 2Z" fill="black"/>
</svg>

<!-- This Source Code Form is subject to the terms of the Mozilla Public
   - License, v. 2.0. If a copy of the MPL was not distributed with this
   - file, You can obtain one at http://mozilla.org/MPL/2.0/. -->
<svg xmlns="http://www.w3.org/2000/svg" width="16" height="16" fill="context-fill" fill-opacity="context-fill-opacity" viewBox="0 0 16 16">
    <path d="M8 2a.75.75 0 0 1 .75.75v4.5h4.5a.75.75 0 0 1 0 1.5h-4.5v4.5a.75.75 0 0 1-1.5 0v-4.5h-4.5a.75.75 0 0 1 0-1.5h4.5v-4.5A.75.75 0 0 1 8 2" />
</svg>
